groups/oxygen/ketene.svg

<?xml version='1.0' encoding='iso-8859-1'?>
<svg version='1.1' baseProfile='full'
              xmlns='http://www.w3.org/2000/svg'
                      xmlns:rdkit='http://www.rdkit.org/xml'
                      xmlns:xlink='http://www.w3.org/1999/xlink'
                  xml:space='preserve'
width='256px' height='256px' viewBox='0 0 256 256'>
<!-- END OF HEADER -->
<rect style='opacity:1.0;fill:#FFFFFF;stroke:none' width='256.0' height='256.0' x='0.0' y='0.0'> </rect>
<path class='bond-0 atom-0 atom-1' d='M 47.2,204.7 L 109.1,169.2' style='fill:none;fill-rule:evenodd;stroke:#000000;stroke-width:2.0px;stroke-linecap:butt;stroke-linejoin:miter;stroke-opacity:1' />
<path class='bond-1 atom-1 atom-2' d='M 103.7,169.2 L 103.9,120.2' style='fill:none;fill-rule:evenodd;stroke:#000000;stroke-width:2.0px;stroke-linecap:butt;stroke-linejoin:miter;stroke-opacity:1' />
<path class='bond-1 atom-1 atom-2' d='M 114.4,169.2 L 114.6,120.2' style='fill:none;fill-rule:evenodd;stroke:#000000;stroke-width:2.0px;stroke-linecap:butt;stroke-linejoin:miter;stroke-opacity:1' />
<path class='bond-2 atom-2 atom-3' d='M 104.0,83.5 L 104.2,48.8' style='fill:none;fill-rule:evenodd;stroke:#000000;stroke-width:2.0px;stroke-linecap:butt;stroke-linejoin:miter;stroke-opacity:1' />
<path class='bond-2 atom-2 atom-3' d='M 114.8,83.5 L 114.9,48.9' style='fill:none;fill-rule:evenodd;stroke:#000000;stroke-width:2.0px;stroke-linecap:butt;stroke-linejoin:miter;stroke-opacity:1' />
<path class='bond-3 atom-1 atom-4' d='M 109.1,169.2 L 156.4,196.8' style='fill:none;fill-rule:evenodd;stroke:#000000;stroke-width:2.0px;stroke-linecap:butt;stroke-linejoin:miter;stroke-opacity:1' />
<path class='atom-1' d='M64.8924,235.633 C67.2148,234.303 65.442,231.207 63.1197,232.536 C60.7973,233.866 59.0246,230.769 61.3469,229.44 C63.6693,228.11 61.8966,225.014 59.5742,226.343 C57.2518,227.673 55.4791,224.576 57.8015,223.247 C60.1238,221.917 58.3511,218.821 56.0287,220.15 C53.7064,221.48 51.9336,218.383 54.256,217.054 C56.5783,215.724 54.8056,212.627 52.4833,213.957 C50.1609,215.286 48.3882,212.19 50.7105,210.86 C53.0329,209.531 51.2601,206.434 48.9378,207.764 C46.6154,209.093 44.8427,205.997 47.165,204.667 C49.4874,203.338 47.7147,200.241 45.3923,201.571 C43.07,202.9 41.2972,199.804 43.6196,198.474 C45.9419,197.145 44.1692,194.048 41.8468,195.377 C39.5245,196.707 37.7517,193.61 40.0741,192.281 C42.3965,190.951 40.6237,187.855 38.3014,189.184 C35.979,190.514 34.2063,187.417 36.5286,186.088 C38.851,184.758 37.0783,181.662 34.7559,182.991 C32.4335,184.321 30.6608,181.224 32.9832,179.895 C35.3055,178.565 33.5328,175.469 31.2104,176.798 C28.8881,178.128 27.1153,175.031 29.4377,173.701' style='fill:none;stroke:#7F7F7F;stroke-width:2.0px;stroke-linecap:butt;stroke-linejoin:miter;stroke-opacity:1' />
<text x='97.3' y='117.9' class='atom-2' style='font-size:40px;font-style:normal;font-weight:normal;fill-opacity:1;stroke:none;font-family:sans-serif;text-anchor:start;fill:#000000' >C</text>
<text x='97.6' y='46.5' class='atom-3' style='font-size:40px;font-style:normal;font-weight:normal;fill-opacity:1;stroke:none;font-family:sans-serif;text-anchor:start;fill:#000000' >O</text>
<text x='158.8' y='225.1' class='atom-4' style='font-size:40px;font-style:normal;font-weight:normal;fill-opacity:1;stroke:none;font-family:sans-serif;text-anchor:start;fill:#000000' >C</text>
<text x='186.4' y='225.1' class='atom-4' style='font-size:40px;font-style:normal;font-weight:normal;fill-opacity:1;stroke:none;font-family:sans-serif;text-anchor:start;fill:#000000' >H</text>
<text x='214.0' y='241.1' class='atom-4' style='font-size:26px;font-style:normal;font-weight:normal;fill-opacity:1;stroke:none;font-family:sans-serif;text-anchor:start;fill:#000000' >3</text>
</svg>

<svg height="256" viewBox="0 0 256 256" width="256" xmlns="http://www.w3.org/2000/svg"><path d="m0 0h256v256h-256z" fill="#fff"/><g fill="none" stroke-width="2"><path d="m47.2 204.7 61.9-35.5" stroke="#000"/><path d="m103.7 169.2.2-49" stroke="#000"/><path d="m114.4 169.2.2-49" stroke="#000"/><path d="m104 83.5.2-34.7" stroke="#000"/><path d="m114.8 83.5.1-34.6" stroke="#000"/><path d="m109.1 169.2 47.3 27.6" stroke="#000"/><path d="m64.892 235.633c2.323-1.33.55-4.426-1.772-3.097-2.323 1.33-4.095-1.767-1.773-3.096 2.322-1.33.55-4.426-1.773-3.097-2.322 1.33-4.095-1.767-1.772-3.096 2.322-1.33.549-4.426-1.773-3.097-2.323 1.33-4.095-1.767-1.773-3.096 2.322-1.33.55-4.427-1.773-3.097-2.322 1.329-4.095-1.767-1.772-3.097 2.322-1.329.549-4.426-1.773-3.096-2.323 1.329-4.095-1.767-1.773-3.097 2.322-1.329.55-4.426-1.773-3.096-2.322 1.329-4.095-1.767-1.772-3.097 2.322-1.329.549-4.426-1.773-3.097-2.322 1.33-4.095-1.767-1.773-3.096 2.323-1.33.55-4.426-1.773-3.097-2.322 1.33-4.095-1.767-1.772-3.096 2.322-1.33.549-4.426-1.773-3.097-2.322 1.33-4.095-1.767-1.773-3.096 2.323-1.33.55-4.426-1.773-3.097-2.322 1.33-4.095-1.767-1.772-3.097" stroke="#7f7f7f"/></g><text font-family="sans-serif" font-size="40" x="97.3" y="117.9">C</text><text font-family="sans-serif" font-size="40" x="97.6" y="46.5">O</text><text font-family="sans-serif" font-size="40" x="158.8" y="225.1">C</text><text font-family="sans-serif" font-size="40" x="186.4" y="225.1">H</text><text font-family="sans-serif" font-size="26" x="214" y="241.1">3</text></svg>
